assets/Honey pot/Flat/honey_pot_flat.svg

<svg width="32" height="32" viewBox="0 0 32 32" fill="none" xmlns="http://www.w3.org/2000/svg">
<path d="M6 8C6 7.44772 6.44772 7 7 7H9.05078L9.09766 7.04688H22.9297L22.9883 7H25C25.5523 7 26 7.44772 26 8C26 8.55228 25.5523 9 25 9L16 11L7 9C6.44772 9 6 8.55228 6 8Z" fill="#D3883E"/>
<path d="M3.99999 16C2.99999 11.5 6 9 8 9L8.05859 8.96094H23.9102L24 9C26 9 29 11.5 28 16L27.7115 17L27.625 17.0547L15.998 21.0547L4.37109 17.0547L4.28845 17L3.99999 16Z" fill="#B97028"/>
<path d="M6.45191 24.5L7.74999 29C7.74999 29 8 30 9 30H23C24 30 24.25 29 24.25 29L25.5481 24.5L25.3813 24.3867L15.9832 21.3867L6.58506 24.3867L6.45191 24.5Z" fill="#B97028"/>
<path d="M27.7115 17H4.28845L6.45191 24.5H25.5481L27.7115 17Z" fill="#8C5543"/>
<path d="M19.6833 3.27274C20.0849 3.37397 20.3285 3.78164 20.2273 4.18329L19.2293 8.14288C19.1281 8.54454 18.7204 8.78808 18.3187 8.68685C17.9171 8.58562 17.6736 8.17795 17.7748 7.7763L18.7727 3.8167C18.874 3.41505 19.2816 3.17151 19.6833 3.27274Z" fill="#6D4534"/>
<path d="M21.5 4.00244C21.5 5.10701 20.6046 6.00244 19.5 6.00244C18.3954 6.00244 17.5 5.10701 17.5 4.00244C17.5 2.89787 18.3954 2.00244 19.5 2.00244C20.6046 2.00244 21.5 2.89787 21.5 4.00244Z" fill="#8C5543"/>
<path d="M9.04745 7C10.0863 13.1281 13.4995 12.7295 13.4995 12.7295C15.8205 12.7295 16.2754 11.6083 16.7047 10.5504C16.8318 10.2372 16.9566 9.92951 17.127 9.65813C17.7842 8.67225 18.8965 9.3927 19.1493 9.65813C19.7939 10.3533 20.5017 10.2269 20.5017 10.2269C22.1119 10.1936 22.8342 7.62361 22.9859 7H9.04745Z" fill="#F9C23C"/>
<path d="M21.6462 12.632C21.6462 12.632 21.291 11.6453 20.2385 11.6716C20.0164 11.6908 19.3194 11.9249 19.4228 12.9873C19.461 13.4169 19.5593 14.6819 21.1644 14.274C21.8019 14.112 21.9357 13.3951 21.6462 12.632Z" fill="#F9C23C"/>
</svg>

<svg xmlns="http://www.w3.org/2000/svg" width="32" height="32" fill="none"><path fill="#D3883E" d="M6 8a1 1 0 0 1 1-1h2.05l.048.047H22.93L22.988 7H25a1 1 0 1 1 0 2l-9 2-9-2a1 1 0 0 1-1-1Z"/><path fill="#B97028" d="M4 16c-1-4.5 2-7 4-7l.059-.04H23.91L24 9c2 0 5 2.5 4 7l-.288 1-.087.055-11.627 4-11.627-4L4.288 17 4 16ZM6.452 24.5 7.75 29S8 30 9 30h14c1 0 1.25-1 1.25-1l1.298-4.5-.167-.113-9.398-3-9.398 3-.133.113Z"/><path fill="#8C5543" d="M27.712 17H4.288l2.164 7.5h19.096l2.164-7.5Z"/><path fill="#6D4534" d="M19.683 3.273a.75.75 0 0 1 .544.91l-.998 3.96a.75.75 0 1 1-1.454-.367l.998-3.96a.75.75 0 0 1 .91-.543Z"/><path fill="#8C5543" d="M21.5 4.002a2 2 0 1 1-4 0 2 2 0 0 1 4 0Z"/><path fill="#F9C23C" d="M9.047 7c1.04 6.128 4.452 5.73 4.452 5.73 2.321 0 2.776-1.122 3.206-2.18.127-.313.252-.62.422-.892.657-.986 1.77-.265 2.022 0 .645.695 1.353.569 1.353.569 1.61-.033 2.332-2.603 2.484-3.227H9.047ZM21.646 12.632s-.355-.987-1.408-.96c-.222.019-.919.253-.815 1.315.038.43.136 1.695 1.741 1.287.638-.162.772-.879.482-1.642Z"/></svg>
